server/website/public/icons/base/calendar.svg

<svg width="48" height="48" viewBox="0 0 48 48" fill="none" xmlns="http://www.w3.org/2000/svg">
<g clip-path="url(#clip0_1350_30081)">
<path d="M0 45.4286C0 46.1106 0.270918 46.7646 0.753154 47.2468C1.23539 47.7291 1.88944 48 2.57143 48H45.4286C46.1106 48 46.7646 47.7291 47.2468 47.2468C47.7291 46.7646 48 46.1106 48 45.4286V15.4286H0V45.4286ZM34.2857 19.2857C34.2857 19.1721 34.3309 19.063 34.4112 18.9827C34.4916 18.9023 34.6006 18.8571 34.7143 18.8571H39C39.1137 18.8571 39.2227 18.9023 39.303 18.9827C39.3834 19.063 39.4286 19.1721 39.4286 19.2857V23.5714C39.4286 23.6851 39.3834 23.7941 39.303 23.8745C39.2227 23.9548 39.1137 24 39 24H34.7143C34.6006 24 34.4916 23.9548 34.4112 23.8745C34.3309 23.7941 34.2857 23.6851 34.2857 23.5714V19.2857ZM34.2857 27.8571C34.2857 27.7435 34.3309 27.6345 34.4112 27.5541C34.4916 27.4737 34.6006 27.4286 34.7143 27.4286H39C39.1137 27.4286 39.2227 27.4737 39.303 27.5541C39.3834 27.6345 39.4286 27.7435 39.4286 27.8571V32.1429C39.4286 32.2565 39.3834 32.3655 39.303 32.4459C39.2227 32.5263 39.1137 32.5714 39 32.5714H34.7143C34.6006 32.5714 34.4916 32.5263 34.4112 32.4459C34.3309 32.3655 34.2857 32.2565 34.2857 32.1429V27.8571ZM25.7143 19.2857C25.7143 19.1721 25.7594 19.063 25.8398 18.9827C25.9202 18.9023 26.0292 18.8571 26.1429 18.8571H30.4286C30.5422 18.8571 30.6512 18.9023 30.7316 18.9827C30.812 19.063 30.8571 19.1721 30.8571 19.2857V23.5714C30.8571 23.6851 30.812 23.7941 30.7316 23.8745C30.6512 23.9548 30.5422 24 30.4286 24H26.1429C26.0292 24 25.9202 23.9548 25.8398 23.8745C25.7594 23.7941 25.7143 23.6851 25.7143 23.5714V19.2857ZM25.7143 27.8571C25.7143 27.7435 25.7594 27.6345 25.8398 27.5541C25.9202 27.4737 26.0292 27.4286 26.1429 27.4286H30.4286C30.5422 27.4286 30.6512 27.4737 30.7316 27.5541C30.812 27.6345 30.8571 27.7435 30.8571 27.8571V32.1429C30.8571 32.2565 30.812 32.3655 30.7316 32.4459C30.6512 32.5263 30.5422 32.5714 30.4286 32.5714H26.1429C26.0292 32.5714 25.9202 32.5263 25.8398 32.4459C25.7594 32.3655 25.7143 32.2565 25.7143 32.1429V27.8571ZM25.7143 36.4286C25.7143 36.3149 25.7594 36.2059 25.8398 36.1255C25.9202 36.0452 26.0292 36 26.1429 36H30.4286C30.5422 36 30.6512 36.0452 30.7316 36.1255C30.812 36.2059 30.8571 36.3149 30.8571 36.4286V40.7143C30.8571 40.8279 30.812 40.937 30.7316 41.0173C30.6512 41.0977 30.5422 41.1429 30.4286 41.1429H26.1429C26.0292 41.1429 25.9202 41.0977 25.8398 41.0173C25.7594 40.937 25.7143 40.8279 25.7143 40.7143V36.4286ZM17.1429 27.8571C17.1429 27.7435 17.188 27.6345 17.2684 27.5541C17.3488 27.4737 17.4578 27.4286 17.5714 27.4286H21.8571C21.9708 27.4286 22.0798 27.4737 22.1602 27.5541C22.2406 27.6345 22.2857 27.7435 22.2857 27.8571V32.1429C22.2857 32.2565 22.2406 32.3655 22.1602 32.4459C22.0798 32.5263 21.9708 32.5714 21.8571 32.5714H17.5714C17.4578 32.5714 17.3488 32.5263 17.2684 32.4459C17.188 32.3655 17.1429 32.2565 17.1429 32.1429V27.8571ZM17.1429 36.4286C17.1429 36.3149 17.188 36.2059 17.2684 36.1255C17.3488 36.0452 17.4578 36 17.5714 36H21.8571C21.9708 36 22.0798 36.0452 22.1602 36.1255C22.2406 36.2059 22.2857 36.3149 22.2857 36.4286V40.7143C22.2857 40.8279 22.2406 40.937 22.1602 41.0173C22.0798 41.0977 21.9708 41.1429 21.8571 41.1429H17.5714C17.4578 41.1429 17.3488 41.0977 17.2684 41.0173C17.188 40.937 17.1429 40.8279 17.1429 40.7143V36.4286ZM8.57143 27.8571C8.57143 27.7435 8.61658 27.6345 8.69695 27.5541C8.77733 27.4737 8.88634 27.4286 9 27.4286H13.2857C13.3994 27.4286 13.5084 27.4737 13.5888 27.5541C13.6691 27.6345 13.7143 27.7435 13.7143 27.8571V32.1429C13.7143 32.2565 13.6691 32.3655 13.5888 32.4459C13.5084 32.5263 13.3994 32.5714 13.2857 32.5714H9C8.88634 32.5714 8.77733 32.5263 8.69695 32.4459C8.61658 32.3655 8.57143 32.2565 8.57143 32.1429V27.8571ZM8.57143 36.4286C8.57143 36.3149 8.61658 36.2059 8.69695 36.1255C8.77733 36.0452 8.88634 36 9 36H13.2857C13.3994 36 13.5084 36.0452 13.5888 36.1255C13.6691 36.2059 13.7143 36.3149 13.7143 36.4286V40.7143C13.7143 40.8279 13.6691 40.937 13.5888 41.0173C13.5084 41.0977 13.3994 41.1429 13.2857 41.1429H9C8.88634 41.1429 8.77733 41.0977 8.69695 41.0173C8.61658 40.937 8.57143 40.8279 8.57143 40.7143V36.4286ZM45.4286 3.42857H39.4371V0H34.2943V3.42857H13.7057V0H8.56286V3.42857H2.57143C2.23503 3.42574 1.9014 3.48951 1.58975 3.61619C1.2781 3.74287 0.994599 3.92997 0.755578 4.1667C0.516557 4.40343 0.32674 4.68512 0.197063 4.99553C0.0673862 5.30594 0.000412167 5.63895 0 5.97536V12H48V5.97536C47.9996 5.63895 47.9326 5.30594 47.8029 4.99553C47.6733 4.68512 47.4834 4.40343 47.2444 4.1667C47.0054 3.92997 46.7219 3.74287 46.4103 3.61619C46.0986 3.48951 45.765 3.42574 45.4286 3.42857Z" fill="black"/>
</g>
<defs>
<clipPath id="clip0_1350_30081">
<rect width="48" height="48" fill="white"/>
</clipPath>
</defs>
</svg>

<svg width="48" height="48" fill="none" xmlns="http://www.w3.org/2000/svg"><g clip-path="url(#prefix__clip0_1350_30081)"><path d="M0 45.429A2.571 2.571 0 002.571 48H45.43A2.57 2.57 0 0048 45.429v-30H0v30zm34.286-26.143a.429.429 0 01.428-.429H39a.428.428 0 01.429.429v4.285A.429.429 0 0139 24h-4.286a.429.429 0 01-.428-.429v-4.285zm0 8.571a.429.429 0 01.428-.428H39a.428.428 0 01.429.428v4.286a.429.429 0 01-.429.428h-4.286a.429.429 0 01-.428-.428v-4.286zm-8.572-8.571a.428.428 0 01.429-.429h4.286a.429.429 0 01.428.429v4.285a.429.429 0 01-.428.429h-4.286a.429.429 0 01-.429-.429v-4.285zm0 8.571a.428.428 0 01.429-.428h4.286a.428.428 0 01.428.428v4.286a.428.428 0 01-.428.428h-4.286a.429.429 0 01-.429-.428v-4.286zm0 8.572a.429.429 0 01.429-.429h4.286a.429.429 0 01.428.429v4.285a.428.428 0 01-.428.429h-4.286a.429.429 0 01-.429-.429V36.43zm-8.571-8.572a.428.428 0 01.428-.428h4.286a.429.429 0 01.429.428v4.286a.428.428 0 01-.429.428h-4.286a.428.428 0 01-.428-.428v-4.286zm0 8.572A.429.429 0 0117.57 36h4.286a.429.429 0 01.429.429v4.285a.428.428 0 01-.429.429h-4.286a.429.429 0 01-.428-.429V36.43zM8.57 27.857A.429.429 0 019 27.43h4.286a.429.429 0 01.428.428v4.286a.429.429 0 01-.428.428H9a.428.428 0 01-.429-.428v-4.286zm0 8.572A.429.429 0 019 36h4.286a.429.429 0 01.428.429v4.285a.429.429 0 01-.428.429H9a.429.429 0 01-.429-.429V36.43zm36.858-33h-5.992V0h-5.143v3.429H13.706V0H8.563v3.429H2.57A2.55 2.55 0 000 5.975V12h48V5.975a2.55 2.55 0 00-2.571-2.546z" fill="#000"/></g><defs><clipPath id="prefix__clip0_1350_30081"><path fill="#fff" d="M0 0h48v48H0z"/></clipPath></defs></svg>
